!!! OTL: Berkowitz378
!!! Chapter: 1
!!! Section: III
!!! Page: 93
!!! Mode: 
!!! Encoder: DJB
**kern
*staff1
*I"Piano
=1-
*clefG2
*k[b-e-]
*B-:
*M6/8
4.r
8r
16r
16f/LL
16g/
16a/JJ
=2
16b-/LL
16cc/
16dd/
16f/
16g/
16a/JJ
16b-/LL
16cc/
16dd/
16f/
16g/
16a/JJ
=3
8b-\L
8cc\
8dd\J
8dd\
4e-/
=4
8a\L
8b-\
8cc\J
4cc\
8d/
=5
8b-/L
8c/
[8a/J
16a/LL]
16g/
16f/
16g/
16a/
16b-/JJ
=6
!!linebreak:original
8cc\L
8dd\
8ee-\J
4ee-\
8f/
=7
8b-\L
8cc\
8dd\J
8dd\
4en/
=8
16f/LL
16g/
16a/
16b-/
16cc/
16dd/JJ
8ee-\L
8dd\
8cc\J
=9
8ff\L
8dd\
[8ee-\J
8ee-\L]
8cc\
[8dd\J
=10
8dd\L]
8b-\
[8cc\J
8cc\L]
8a\
[8b-\J
=11
16b-/LL]
16f/
16g/
16a/
16b-/
16cc/JJ
8dd\L
8cc\
8b-\J
=12
!!linebreak:original
8ee-\L
8g\
8a\J
8b-\
4r
==
*-
